svg/numeric_10_box_multiple.svg

<?xml version="1.0" encoding="UTF-8"?><!DOCTYPE svg PUBLIC "-//W3C//DTD SVG 1.1//EN" "http://www.w3.org/Graphics/SVG/1.1/DTD/svg11.dtd"><svg xmlns="http://www.w3.org/2000/svg" xmlns:xlink="http://www.w3.org/1999/xlink" version="1.1" id="mdi-numeric-10-box-multiple" width="24" height="24" viewBox="0 0 24 24"><path d="M3 5V21H19V23H3C1.9 23 1 22.11 1 21V5H3M16 13H18V7H16V13M21 1H7C5.9 1 5 1.9 5 3V17C5 18.11 5.9 19 7 19H21C22.11 19 23 18.11 23 17V3C23 1.9 22.11 1 21 1M12 15H10V7H8V5H12V15M20 13C20 14.11 19.11 15 18 15H16C14.9 15 14 14.11 14 13V7C14 5.9 14.9 5 16 5H18C19.11 5 20 5.9 20 7V13Z" /></svg>

<svg xmlns="http://www.w3.org/2000/svg" viewBox="0 0 24 24"><path d="M3 5v16h16v2H3a2 2 0 0 1-2-2V5zm13 8h2V7h-2zm5-12H7c-1.1 0-2 .9-2 2v14a2 2 0 0 0 2 2h14c1.11 0 2-.89 2-2V3a2 2 0 0 0-2-2m-9 14h-2V7H8V5h4zm8-2c0 1.11-.89 2-2 2h-2a2 2 0 0 1-2-2V7c0-1.1.9-2 2-2h2a2 2 0 0 1 2 2z"/></svg>
